svgs/sharp-regular/clarinet.svg

<svg xmlns="http://www.w3.org/2000/svg" viewBox="0 0 640 512"><!--! Font Awesome Pro 6.6.0 by @fontawesome - https://fontawesome.com License - https://fontawesome.com/license (Commercial License) Copyright 2024 Fonticons, Inc. --><path d="M224 96l16 0 32 0 96 0 96 0 32 0 16 0 0 32-16 0-16 0 0 32 57.8 0 66.6-37L640 103.2l0 40.8 0 224 0 40.8L604.3 389l-66.6-37L104 352l-3.5 0-3.4-1-80-24L0 321.9 0 304l0-96 0-17.9L17.1 185l80-24 3.4-1 3.5 0 152 0 0-32-16 0-16 0 0-32zm64 64l64 0 0-32-64 0 0 32zm96 0l64 0 0-32-64 0 0 32zM248 256a24 24 0 1 1 48 0 24 24 0 1 1 -48 0zm120-24a24 24 0 1 1 0 48 24 24 0 1 1 0-48zm72 24a24 24 0 1 1 48 0 24 24 0 1 1 -48 0zm115.7-51l-5.4 3-6.2 0-436.5 0L48 225.9l0 60.3L107.5 304 544 304l6.2 0 5.4 3L592 327.2l0-142.4L555.7 205z"/></svg>

<svg xmlns="http://www.w3.org/2000/svg" viewBox="0 0 640 512"><!--! Font Awesome Pro 6.4.0 by @fontawesome - https://fontawesome.com License - https://fontawesome.com/license (Commercial License) Copyright 2023 Fonticons, Inc. --><path d="M224 96h16 32 96 96 32 16v32H496 480v32h57.8l66.6-37L640 103.2V144 368v40.8L604.3 389l-66.6-37H104h-3.5l-3.4-1-80-24L0 321.9V304 208 190.1L17.1 185l80-24 3.4-1H104 256V128H240 224V96zm64 64h64V128H288v32zm96 0h64V128H384v32zM248 256a24 24 0 1 1 48 0 24 24 0 1 1 -48 0zm120-24a24 24 0 1 1 0 48 24 24 0 1 1 0-48zm72 24a24 24 0 1 1 48 0 24 24 0 1 1 -48 0zm115.7-51l-5.4 3H544 107.5L48 225.9v60.3L107.5 304H544h6.2l5.4 3L592 327.2V184.8L555.7 205z"/></svg>
